packages/sources/icons/src/vitamix/messenger-line.svg

<svg width="16" height="16" viewBox="0 0 16 16" fill="none" xmlns="http://www.w3.org/2000/svg">
<path fill-rule="evenodd" clip-rule="evenodd" d="M8 1.33333C11.756 1.33333 14.6667 4.08467 14.6667 7.8C14.6667 11.5153 11.756 14.2667 8 14.2667C7.34809 14.2683 6.69892 14.1822 6.06999 14.0107C5.95186 13.9782 5.82615 13.9874 5.71399 14.0367L4.39133 14.6207C4.22905 14.6924 4.04174 14.6787 3.89159 14.5842C3.74145 14.4897 3.64815 14.3267 3.64266 14.1493L3.60599 12.9627C3.60114 12.8168 3.53653 12.6794 3.42733 12.5827C2.12999 11.4233 1.33333 9.74467 1.33333 7.8C1.33333 4.08467 4.24466 1.33333 8 1.33333ZM5.17599 12.8167C5.56933 12.6433 6.00933 12.6107 6.42133 12.724C6.93466 12.864 7.46466 12.9347 7.99999 12.9333C11.0567 12.9333 13.3333 10.742 13.3333 7.8C13.3333 4.858 11.0567 2.66667 7.99999 2.66667C4.94333 2.66667 2.66666 4.858 2.66666 7.8C2.66666 9.31333 3.26399 10.648 4.31066 11.584C4.69501 11.9244 4.92216 12.4082 4.93866 12.9213L5.17599 12.8167ZM5.9546 6.58467L3.9966 9.69134V9.69067C3.8086 9.98934 4.17526 10.3253 4.45593 10.1127L6.55926 8.516C6.70189 8.40833 6.89863 8.40833 7.04126 8.516L8.5986 9.68267C8.82206 9.85049 9.10556 9.91715 9.38039 9.86649C9.65523 9.81583 9.89632 9.65247 10.0453 9.416L12.0033 6.30934C12.1913 6.01067 11.8246 5.67467 11.5439 5.88734L9.4406 7.48467C9.29797 7.59234 9.10122 7.59234 8.9586 7.48467L7.40126 6.318C7.1778 6.15018 6.8943 6.08352 6.61947 6.13418C6.34463 6.18484 6.10354 6.3482 5.9546 6.58467Z" fill="#001018"/>
</svg>

<svg width="16" height="16" fill="none" xmlns="http://www.w3.org/2000/svg"><path fill-rule="evenodd" clip-rule="evenodd" d="M8 1.333c3.756 0 6.667 2.752 6.667 6.467S11.756 14.267 8 14.267a7.268 7.268 0 0 1-1.93-.256.533.533 0 0 0-.356.026l-1.323.584a.533.533 0 0 1-.748-.472l-.037-1.186a.531.531 0 0 0-.179-.38C2.13 11.423 1.333 9.745 1.333 7.8c0-3.715 2.912-6.467 6.667-6.467zM5.176 12.817a1.863 1.863 0 0 1 1.245-.093c.514.14 1.044.21 1.579.21 3.057 0 5.333-2.192 5.333-5.134S11.057 2.667 8 2.667c-3.057 0-5.333 2.191-5.333 5.133 0 1.513.597 2.848 1.644 3.784.384.34.611.824.628 1.337l.237-.104zm.779-6.232L3.997 9.69c-.188.298.178.634.459.422l2.103-1.597a.4.4 0 0 1 .482 0L8.6 9.683a1 1 0 0 0 1.446-.267l1.958-3.107c.188-.298-.178-.634-.46-.422L9.442 7.485a.4.4 0 0 1-.482 0L7.4 6.318a1 1 0 0 0-1.446.267z" fill="#001018"/></svg>
